X:195
T:John Barton THO1.195
M:2/4
L:1/8
Z:vmp. Peter Dunk 2012.from a transcription by Fynn Titford-Mock 2006
B:Thompson's Compleat Collection of 200 Favourite Country Dances Vol.I,1758
Q:1/2=70
K:G
B| ce Ac|BdGc|BG dB|(3ABA Ac|BG-GB|cA-Af|gedB|G>A G:|
|:d|BG ec|dBgd|BG dB|(3ABA Ac|BG ec|dBgd|d>gdB|(3GAG G:|
|:d|gd-dg|ad-dg|a>bag|fd-df|gfed|edcB|cAdB|(3GAG G:|

